X: 61
T: Cup of Tea
R:reel
M:C
L:1/8
K:D
"Em" BAGF GEEF|GEBE GE E2|BAGF GEEG|"D"FDAG FD D2|
"Em" BAGF GEEF|GEBE GE E2|"G"BAGF GABc|"D"dBAG FD D2:|
|:"D"d2 (3(efg) fdec |d2 (3(efg) "Bm"fB B2|"D"d2 (3(efg) fdec|dBAG FD D2|
"D"d2 (3(efg) fdec|dfaf "G"g2 fg|"D"afge fdec|dBAG FD D2:|
|:"D"FAdA FAdA|FAdA "A"GE E2|"D"FAdA "G"BABc|"D"dBAG FD D2|
"D"FAdA FAdA|FAde "A"fe e2|"D"fdec "G"dBAG|"D"FBAG FD D2:|


